16x16/panel/obs-tray.svg

<svg xmlns="http://www.w3.org/2000/svg" width="16" height="16" version="1.1">
 <defs>
  <style id="current-color-scheme" type="text/css">
   .ColorScheme-Text { color:#323a41; } .ColorScheme-Highlight { color:#4285f4; } .ColorScheme-NeutralText { color:#ff9800; } .ColorScheme-PositiveText { color:#4caf50; } .ColorScheme-NegativeText { color:#f44336; }
  </style>
 </defs>
 <path style="fill:currentColor" class="ColorScheme-Text" d="M 8,1 A 7,7 0 0 0 1,8 7,7 0 0 0 8,15 7,7 0 0 0 15,8 7,7 0 0 0 8,1 Z M 8,2.75 A 5.25,5.25 0 0 1 13.215,7.4434 C 13.07,7.2122 12.902,6.9903 12.695,6.7871 12.12,6.2175 11.422,5.8786 10.594,5.7676 10.47,5.751 10.365,5.7211 10.197,5.7832 10.028,5.8448 9.9462,5.9802 9.8965,6.0645 9.8247,6.186 9.4149,6.6036 9.1855,6.75 8.5348,7.1658 7.4225,7.166 6.7695,6.75 5.9974,6.2582 5.5564,5.2938 5.6953,4.4434 5.774,3.9621 5.9794,3.5444 6.3184,3.1855 6.3888,3.1109 6.4414,3.0521 6.4844,3.0039 6.4948,2.9923 6.5027,2.9786 6.5117,2.9688 A 5.25,5.25 0 0 1 8,2.75 Z M 4.7305,3.8906 C 4.5235,4.3451 4.3856,4.9298 4.3867,5.4102 4.3878,5.8587 4.4979,6.3911 4.668,6.8164 4.7129,6.9287 4.7673,7.0789 4.9297,7.1797 5.0921,7.2805 5.208,7.2765 5.3711,7.2949 5.5128,7.3108 5.806,7.3753 5.9355,7.4199 7.2387,7.8682 7.8521,9.3621 7.2402,10.611 6.8297,11.45 5.8407,12.004 4.9727,11.906 4.8603,11.893 4.7777,11.888 4.7012,11.889 4.6629,11.889 4.6361,11.881 4.5547,11.906 4.5451,11.908 4.5298,11.917 4.5176,11.922 A 5.25,5.25 0 0 1 2.75,8 5.25,5.25 0 0 1 4.7305,3.8906 Z M 5.1309,5.2266 5.1328,5.2285 C 5.2246,5.7807 5.4464,6.249 5.8184,6.6797 5.6907,6.6508 5.5652,6.6106 5.4512,6.5977 5.3233,6.5832 5.3171,6.5782 5.3281,6.5879 5.3239,6.5781 5.3258,6.5824 5.3145,6.5566 5.1864,6.2362 5.0888,5.7361 5.0879,5.4082 5.0878,5.3598 5.1255,5.2848 5.1309,5.2266 Z M 10.469,6.4492 C 10.478,6.4498 10.446,6.4558 10.498,6.4629 10.783,6.5011 10.957,6.7016 11.193,6.7969 10.897,6.7522 10.63,6.5818 10.328,6.6328 10.267,6.6426 10.25,6.7132 10.191,6.7266 10.28,6.6272 10.406,6.5507 10.469,6.4492 Z M 10.834,7.2949 C 11.742,7.3164 12.639,7.9236 12.967,8.7969 12.993,8.8663 13.01,8.9187 13.027,8.9609 13.035,8.9819 13.045,8.9982 13.055,9.0195 13.061,9.0307 13.065,9.0418 13.074,9.0586 13.078,9.067 13.085,9.0763 13.094,9.0898 13.1,9.0981 13.112,9.1113 13.125,9.125 A 5.25,5.25 0 0 1 8,13.25 5.25,5.25 0 0 1 5.793,12.756 C 6.1116,12.756 6.4287,12.734 6.6914,12.654 L 6.7188,12.645 6.7363,12.635 6.7422,12.631 C 7.4515,12.4 8.1961,11.88 8.6074,11.303 L 8.8281,10.996 8.623,10.387 C 8.1516,8.9601 8.9827,7.569 10.445,7.3223 10.573,7.3006 10.703,7.2918 10.834,7.2949 Z M 9.0918,7.4727 C 8.5853,7.8843 8.1827,8.3957 7.9766,8.9746 7.7816,8.4159 7.4134,7.9007 6.9375,7.4902 7.6431,7.7545 8.3948,7.7551 9.0918,7.4727 Z M 7.9727,10.645 8.0488,10.881 8.0352,10.898 C 7.9554,11.011 7.7378,11.082 7.6016,11.203 7.6754,11.093 7.8103,11.042 7.8691,10.922 7.9142,10.83 7.9399,10.737 7.9727,10.645 Z"/>
</svg>

<svg xmlns="http://www.w3.org/2000/svg" width="16" height="16"><defs><style id="current-color-scheme" type="text/css"></style></defs><path style="fill:currentColor;color:#323a41" d="M8 1a7 7 0 0 0-7 7 7 7 0 0 0 7 7 7 7 0 0 0 7-7 7 7 0 0 0-7-7zm0 1.75a5.25 5.25 0 0 1 5.215 4.693 3.573 3.573 0 0 0-2.621-1.676c-.124-.016-.229-.046-.397.016a.585.585 0 0 0-.3.281c-.072.122-.482.54-.712.686-.65.416-1.763.416-2.416 0-.772-.492-1.213-1.456-1.074-2.307.079-.48.284-.899.623-1.257.07-.075.123-.134.166-.182l.028-.035A5.25 5.25 0 0 1 8 2.75zM4.73 3.89a3.916 3.916 0 0 0-.343 1.52c0 .449.11.981.281 1.406.045.113.1.263.262.364.162.1.278.097.441.115.142.016.435.08.564.125A2.298 2.298 0 0 1 7.24 10.61c-.41.839-1.4 1.393-2.267 1.295a2.084 2.084 0 0 0-.272-.017c-.038 0-.065-.008-.146.017-.01.002-.025.011-.037.016A5.25 5.25 0 0 1 2.75 8a5.25 5.25 0 0 1 1.98-4.11zm.4 1.337.003.002a2.87 2.87 0 0 0 .685 1.45c-.127-.028-.253-.068-.367-.081-.128-.015-.134-.02-.123-.01l-.014-.031a3.641 3.641 0 0 1-.226-1.149c0-.048.037-.123.043-.181zm5.339 1.222c.009 0-.023.007.029.014.285.038.459.239.695.334-.296-.045-.563-.215-.865-.164-.061.01-.078.08-.137.094.089-.1.215-.176.278-.278zm.365.846c.908.021 1.805.629 2.133 1.502.026.07.043.122.06.164.008.02.018.037.028.059.006.01.01.022.019.039.004.008.011.017.02.03a.427.427 0 0 0 .031.036A5.25 5.25 0 0 1 8 13.25a5.25 5.25 0 0 1-2.207-.494c.319 0 .636-.022.898-.102l.028-.009.017-.01.006-.004c.71-.231 1.454-.751 1.865-1.328l.221-.307-.205-.609c-.471-1.427.36-2.818 1.822-3.065.128-.021.258-.03.389-.027zm-1.742.178c-.507.411-.91.923-1.115 1.502a3.531 3.531 0 0 0-1.04-1.485 2.932 2.932 0 0 0 2.155-.017zm-1.12 3.172.077.236-.014.017c-.08.113-.297.184-.433.305.073-.11.208-.161.267-.281.045-.092.07-.185.104-.277z"/></svg>
